X: 1
T: Gibby Gray
C: Steve Spence
R: reel
B: printed page of unknown origin in Concord Slow Scottish Jam session binder 2.
Z: 2015 John Chambers <jc:trillian.mit.edu>
M: C|
L: 1/8
K: Am
|:\
EAA(c BA)GA | Bdg(d BA)GA |\
EAA(c BA)GA | BdBG A4 :|
|:\
eaa(g ag)ed | c2(cB) cBAG |\
Bdg(B BA)GA | BdBG A4 :|
